X:5794
T:Saw ye nae my Peggy
O:england
M:3/2
K:Em
"tr"e3d (e>fg).e (dB)("tr"AG)| d3e (de)(dB) (cB)("tr"AG)|\
"tr"e3d e2(d/e/g) (dB)("tr"AG)| A>GAB (cB)("tr"AG) {D}E4::
D>EG>A G3A G/A/B "tr"AG| E2A2 A3B ("tr"cB)("tr"AG)|\
D>EG>A G3A {GA}B2AG| (AB)(ge) dBA>"tr"G E4::
("tr"e>de)g e>ged BdBG| \
d>B(de/f/) (g/f/)(e/d/) (e/d/c/B/) (cB)("tr"AG)|\
e>def g>fga {ga}b2G>B|
A>cB>g (dB)("tr"AG) {D}E4::\
d>eg>a g3a g/a/b ag| e2a>b a3g (c'b)("tr"ag)|
d>eg>a g3a g/a/b ("tr"ag)| ("tr"a>ga)b a/g/f b/a/g {d}e4:|
